X:206
T:Lady Shaftsburys Reel
O:No 206  Page 101 William Clarke of Feltwell
M:4/4
L:1/8
N:In m.s. key given as D. It makes for interesting listening.
N:No repeat marks at end of B music in m.s.
K:A
c/B/|AECEA2Af|ecBA GBB(c/B/)|AECEA2Af|ecBcA3::e|agfea2Af|ecBA G(BB)e|agfea2Af|ecBcA3e|agfe e^def|bBBBB2cd|efec BABc|A2A2A2z:|

